img/footer-img-03.svg

<svg width="24" height="26" viewBox="0 0 24 26" fill="none" xmlns="http://www.w3.org/2000/svg">
<path d="M23.71 1.21695C23.575 1.07725 23.4045 0.980523 23.2185 0.93815C23.0325 0.895776 22.8388 0.909513 22.66 0.977746L0.660001 9.29775C0.470269 9.37259 0.306921 9.50569 0.191652 9.67938C0.0763829 9.85306 0.0146484 10.0591 0.0146484 10.2701C0.0146484 10.4812 0.0763829 10.6872 0.191652 10.8609C0.306921 11.0346 0.470269 11.1677 0.660001 11.2425L10.26 15.2361L14.1 25.2201C14.1721 25.4088 14.2958 25.5714 14.4557 25.6878C14.6157 25.8042 14.8049 25.8694 15 25.8753C15.2021 25.871 15.3982 25.8031 15.5624 25.6806C15.7266 25.5581 15.8513 25.3867 15.92 25.1889L23.92 2.30895C23.9881 2.12495 24.0046 1.92459 23.9674 1.73125C23.9302 1.53791 23.8409 1.35954 23.71 1.21695ZM15 21.9233L12.21 14.6433L17 9.66175L15.59 8.19535L10.76 13.2185L3.8 10.2753L21.33 3.69215L15 21.9233Z" fill="#8EC2F2"/>
</svg>

<svg width="24" height="26" fill="none" xmlns="http://www.w3.org/2000/svg"><path d="M23.71 1.217a.99.99 0 0 0-.492-.279.964.964 0 0 0-.558.04l-22 8.32c-.19.075-.353.208-.468.381a1.07 1.07 0 0 0 0 1.182c.115.174.278.307.468.381l9.6 3.994 3.84 9.984c.072.189.196.351.356.468.16.116.349.181.544.187a.975.975 0 0 0 .562-.194c.165-.123.29-.294.358-.492l8-22.88a1.08 1.08 0 0 0-.21-1.092ZM15 21.923l-2.79-7.28L17 9.662l-1.41-1.467-4.83 5.024-6.96-2.944 17.53-6.583L15 21.923Z" fill="#8EC2F2"/></svg>
